X: 29044
T: Needle Case
R: polka
M: 2/4
K: Cmajor
e/f/|g3/d/ e/d/c|G/A/c A/G/ e/f/|g3/d/ e/d/d/c/|G/B/B/A/ G e/f/|
g3/d/ e/d/c|G/A/c A/G3/|G/B/c d/c/B|Bc c2:|
C/E/G/B/ cB|A4|C/E/G/B/ cA/G/|B4|
C/E/G/B/ cB|A4|G/B/c/G/ d/c/B/G/|d/c/B/G/ c2:|

